X:1
T:I'm Just a Poor Wayfaring Stranger
M:4/4
L:1/8
K:F
 z4 z DE D| A4- AF GA| F D3- DD DA| G4- GD FG| A4- AD DD| A4- AF GA|\
 F D3- DD DA| G3 F D2 C2| D4- DA Ac| d3 A c2 A2| G D3- DA Ac| d3 c A2 G2|\
 A4- AA dc| A3 F G2A-G| F2 D3 DD A| G3 F D2 C2| D4- D z3|
